X:1
T:Tantum Ergo
T:Louis Vierne, op. 2
T:Tantum Ergo
T:Copyright © 2019 by The Choral Public Domain Library. Edition may be freely distributed, duplicated, performed or recorded.
T:Copyright © 2019 by The Choral Public Domain Library. Edition may be freely distributed, duplicated, performed or recorded.
C:Louis Vierne, op. 2
Z:Copyright © 2019 by The Choral Public Domain Library. Edition may be freely distributed, duplicated, performed or recorded.
%%score { ( 1 4 ) | ( 2 3 ) }
L:1/8
Q:1/4=80
M:3/4
K:F
V:1 treble nm="Choir" snm="Choir"
V:4 treble 
V:2 bass 
V:3 bass 
V:1
 z6 | z2 [Ec]2 [FA]2 |!>(! d2!>)! D3 E |!p! !fermata![CF]4 z2 |!p! c4 c2 | c4 c2 | (d2 e2) f2 | %7
w: ||||1.~Tan- tum|er- go|sa- * cra-|
w: ||||2.~Ge- ni-|to- ri,|Ge- * ni-|
 B4 B2 |"^cresc. poco" (B2 d2) c2 | A4 B2 |"^dim." (c2 B3) A | [CG]6 |"^cresc. poco a poco" A4 A2 | %13
w: men- tum,|ve- * ne-|re- mur|cer- * nu-|i|et an-|
w: to- que|laus _ et|ju- bi-|la- * ti-|o.|Sa- lus,|
 =B4 c2 | (d2 e2) f2 | e4 d2 | (c2 d2) e2 | (e2 d2) c2 |"^dim." =B4- Bc |!p! [CA]4 z2 | %20
w: ti- quum|do- * cu-|men- tum|no- * vo|ce- * dat|ri- * tu-|i.|
w: ho- nor,|vir- * tus|quo- que,|sit _ et|be- * ne-|di- * cti-|o;|
!pp! (c2 d2) _e2 | d4 c2 | (c2 d2) (f_e) | d4 c2 |"^cresc." (B2 g2) f2 | _e4 d2 | %26
w: Prae- * stet|fi- des|sup- * ple- *|men- tum|sen- * su-|um de-|
w: Pro- * ce-|den- ti|ab _ u- *|tro- que|com- * par|sit lau-|
 (([Af]2 [GB]3)) [Ac] | [Bd]6 |!f! (f2 g2) a2 | c4"^dim." d2 |!p!"^poco rall." (B2 A3) G | %31
w: fe- * ctu-|i,|sen- * su-|um de-|fe- * ctu-|
w: da- * ti-|o,|com- * par|sit lau-|da- * ti-|
 [CF]4 z2 :| z6 | z2!mf! [Ec]2 [FA]2 |"^dim. e poco rall." (d2 D3 E) |!p! !fermata![CF]4 z2 |] %36
w: i.||A- men,|a- * *|men.|
w: o.|||||
V:2
 z6 | z2 A,2 F,2- | F,4 B,2 | A,4 z2 | A,2 B,2 C2 | D2 C2 B,2 | A,4 C2 | C2 B,2 A,2 | G,2 B,2 A,2 | %9
w: |||||||||
w: |||||||||
w: |||||||||
w: |||||||||
 F,4 F,2 | F,4- F,F, | F,2 D,2 E,2 | C2 =B,2 A,2 | ^G,4 A,2 | A,4 =B,C | D2 E2 F2 | E2 D2 C2 | %17
w: ||||||||
w: ||||||||
w: ||||||||
w: ||||||||
 C2 =B,2 A,2 | [E,^G,]4 [E,G,]2 | [A,,A,]4 z2 | _E2 D2 C2 | B,2 A,2 D2 | _E2 D2 C2 | B,2 A,2 _A,2 | %24
w: |||||||
w: |||||||
w: |ri- tu-|i.|||||
w: |di- cti-|o;|||||
 G,2 _E2 D2 | C4 B,2 | B,4 _E2 | [B,,D]6 | [DF]2 [C=E]2 [B,D]2 | [A,C]2 [G,B,]2 [F,A,]2 | %30
w: ||||||
w: ||||||
w: ||||||
w: ||||||
 G,2 C2 B,2 | [F,A,]4 z2 :|!mf! z6 | z2 A,2 F,2 | F,4 B,2 | !fermata![F,,A,]4 z2 |] %36
w: ||||||
w: ||||||
w: |||||men.|
w: ||||||
V:3
 F,2 G,2 A,2 | C,4 D,2 | B,,2 A,,2 G,,2 | !fermata!F,,4 x2 | F,4 F,2 | F,4 F,2 | F,2 C,2 A,2 | %7
w: |||||||
w: |||||||
w: |||||||
w: |||||||
 G,4 F,2 | E,2 C,2 C,2 | D,2 C,2 B,,2 | A,,2 G,,2 F,,2 | C,6 | z6 | E,2 D,2 C,2 | =B,,2 B,,2 A,,2 | %15
w: ||||||||
w: ||||||||
w: ||||||et an- ti-|quum do- cu-|
w: ||||||Sa- lus, ho-|nor, vir- tus|
 ^G,,4 ^G,2 | A,4 A,2 | D,4 D,2 | x6 | x6 | A,4 A,2 | D,4 D,2 | A,4 A,2 | D,4 D,2 | _E,4 E,2 | %25
w: ||||||||||
w: ||||||||||
w: men- tum|no- vo|ce- dat||||||||
w: quo- que,|sit et|be- ne-||||||||
 _E,2 F,2 G,2 | D,2 _E,2 C,2 | x6 | x6 | x6 | C,4 C,2 | x6 :| F,2 G,2 A,2 | C,4 D,2 | %34
w: |||||||||
w: |||||||||
w: |||||||A- * *|men, _|
w: |||||||||
 B,,2 A,,2 G,,2 | x6 |] %36
w: ||
w: ||
w: a- * *||
w: ||
V:4
 x6 | x6 | D2 C4- | x6 | (F2 G2) A2 | (B2 A2) G2 | F4 F2 | (F2 E2) D2 | (C2 D2) E2 | (F2 E2) D2 | %10
 C4- CC | x6 | (E2 D2) C2 | (=B,2 E2) E2 | (F2 E2) D2 | =B4 B2 | =B4 (AG) | F4 F2 | (F2 E2) D2 | %19
 x6 | G4 G2 | ^F4 F2 | G4 G2 | ^F4 F2 | G4 G2 | (G2 =A2) B2 | x6 | x6 | (B2 A2) G2 | (F2 E2) D2 | %30
 (F2 E2) D2 | x6 :| x6 | x6 | (D2 C4) | x6 |] %36

